libs/ui/packages/crypto-icons/src/svg/ICN.svg

<svg width="24" height="24" viewBox="0 0 24 24" fill="none">
<path d="M15.9998 5.25H18V18.75H15.9998V5.25ZM12.6667 12H14.667V18.75H12.6667V12ZM9.333 8.625H11.3333V18.75H9.333V8.625ZM6 15.375H8.00025V18.75H6V15.375Z" fill="#4C6F8C"/>
</svg>

<svg width="24" height="24" viewBox="0 0 24 24" fill="none"><path fill="#4c6f8c" d="M16 5.25h2v13.5h-2zM12.667 12h2v6.75h-2zM9.333 8.625h2V18.75h-2zM6 15.375h2v3.375H6z"/></svg>
